svg/alphanum/s-square.svg

<svg width="448" height="512" viewBox="0 0 448 512" version="1.1" xmlns="http://www.w3.org/2000/svg"><path fill="currentColor" d="M400,480l-352,0c-26.51,0 -48,-21.49 -48,-48l0,-352c0,-26.51 21.49,-48 48,-48l352,0c26.51,0 48,21.49 48,48l0,352c0,26.51 -21.49,48 -48,48Zm-270.073,-176c-8.488,0.001 -11.683,8.28 -9.003,18c11.858,42.77 49.653,62 103.076,62c58.918,0 104,-25.53 104,-76c0,-51.222 -47.7,-66.516 -89.33,-72.523c-3.787,-0.547 -7.556,-1.035 -11.256,-1.514c-27.59,-3.571 -51.414,-6.656 -51.414,-29.963c0,-26.665 38.275,-28 48,-28c28.328,0 40.411,4.5 53.108,27.506c3.317,4.494 4.932,4.494 8.953,4.494l32.012,0c8.488,0 11.683,-8.28 9.003,-18c-11.858,-42.77 -49.653,-62 -103.076,-62c-58.918,0 -104,25.53 -104,76c0,51.222 47.7,66.516 89.33,72.523c3.787,0.547 7.556,1.035 11.256,1.514c27.59,3.571 51.414,6.656 51.414,29.963c0,27.665 -30.275,28 -48,28c-28.328,0 -40.411,-4.5 -53.108,-27.506c-3.317,-4.494 -4.932,-4.494 -8.953,-4.494l-32.012,0Z"></path></svg>

<svg width="448" height="512" viewBox="0 0 448 512" fill="none" xmlns="http://www.w3.org/2000/svg">
<path fill-rule="evenodd" clip-rule="evenodd" d="M48 32C21.4903 32 0 53.4903 0 80V432C0 458.51 21.4903 480 48 480H400C426.51 480 448 458.51 448 432V80C448 53.4903 426.51 32 400 32H48ZM328 308C328 256.778 280.3 241.484 238.67 235.477C234.883 234.93 231.114 234.442 227.414 233.963C199.824 230.392 176 227.307 176 204C176 177.335 214.275 176 224 176C252.328 176 264.411 180.5 277.108 203.506C280.425 208 282.04 208 286.061 208H318.073C326.561 208 329.756 199.72 327.076 190C315.218 147.23 277.423 128 224 128C165.082 128 120 153.53 120 204C120 255.222 167.7 270.516 209.33 276.523C213.117 277.07 216.886 277.558 220.586 278.037C248.176 281.608 272 284.693 272 308C272 335.665 241.725 336 224 336C195.672 336 183.589 331.5 170.892 308.494C167.575 304 165.96 304 161.939 304H129.927C121.439 304 118.244 312.28 120.924 322C132.782 364.77 170.577 384 224 384C282.918 384 328 358.47 328 308Z" fill="black"/>
</svg>
